teeny/outline/clipboard-no-access.svg

<svg width="15" height="15" viewBox="0 0 15 15" fill="none" xmlns="http://www.w3.org/2000/svg">
<path d="M11 1.5H13.5V13.5C13.5 14.0523 13.0523 14.5 12.5 14.5H2.5C1.94772 14.5 1.5 14.0523 1.5 13.5V1.5H4M9.5 6.5L5.5 10.5M4.5 0.5H10.5V2.5C10.5 3.05228 10.0523 3.5 9.5 3.5H5.5C4.94772 3.5 4.5 3.05228 4.5 2.5V0.5ZM7.5 11.5C5.84315 11.5 4.5 10.1569 4.5 8.5C4.5 6.84315 5.84315 5.5 7.5 5.5C9.15685 5.5 10.5 6.84315 10.5 8.5C10.5 10.1569 9.15685 11.5 7.5 11.5Z" stroke="black"/>
</svg>

<svg viewBox="0 0 15 15" xmlns="http://www.w3.org/2000/svg"><path fill="none" stroke="#000" d="M11 1.5h2.5v12c0 .55-.45 1-1 1h-10c-.56 0-1-.45-1-1v-12H4m5.5 5l-4 4m-1-10h6v2c0 .55-.45 1-1 1h-4c-.56 0-1-.45-1-1v-2Zm3 11c-1.66 0-3-1.35-3-3 0-1.66 1.34-3 3-3 1.65 0 3 1.34 3 3 0 1.65-1.35 3-3 3Z"/></svg>
